X:2
T:The Fife Hunt
C:William Gow
R:reel
Z:Arranged by C. McGrew
M:C|
Q:1/2=120
K:C
f| "C"ec c2 GE E2| "F"Ddd^c d2 df| "C"ec c2 GE E2| \
   "G"GccB "C"c2 cf| "C"ec c2 GE E2|
   "F"Ddd^c d2 df| "C"ec c2 "G"GE E2| Ac-cB "C"c2-c:| \
f| "C"ecgc acgc| "F"Add^c d2-df| "C"ecgc acgc| 
   "G"GccB "C"c2 cf| "C"ecgc acgc| "F"Add^c d2-df| \
   "C"egcg "F"fadf| "G"ec-cB "C"c2-c:|
